!!!Melodie: eigene
!!!Typ: Lied
**kern	**silbe	**silbe	**silbe	**silbe	**silbe	**silbe	**silbe	**silbe	**silbe	**silbe
*clefG2	*lang:DE	*lang:DE	*lang:DE	*lang:DE	*lang:DE	*lang:DE	*lang:DE	*lang:DE	*lang:DE	*lang:DE
*k[b-]	*	*	*	*	*	*	*	*	*	*
*M6/4	*	*	*	*	*	*	*	*	*	*
4c	Er	Denn	Er	denn	Der	Se#	„Geht	Was	Er	Uns
4c	ist	un#	war	die	En#	#het,	und	Gott,	ist	kann
4c	er#	#ser	be#	Ge#	#gel	das	ver#	ge#	er#	nicht
=	=	=	=	=	=	=	=	=	=	=
2f	#stan#	Hei#	#gra#	#walt	sag#	Grab	#kün#	#bo#	#stan#	scha#
4f	#den,	#land	#ben	des	#te:	ist	#digt,	#ten,	#den,	#den
4a	Hal#	hat	drei	Tod’s	„Fürch#	leer,	dass	ist	hat	Sünd’
4g	#le#	tri#	Ta#	ist	#tet	wo	Je#	nun	uns	o#
4g	#lu#	#um#	#ge	zer#	euch	er	#sus	voll#	be#	#der
=	=	=	=	=	=	=	=	=	=	=
2.f	#ja!	#phiert,	lang.	#stört;	nicht!	lag:	lebt,	#bracht,	#freit;	Tod,
4g	Freut	all	Ihm	se#	Ihr	er	da#	Christ	da#	Chris#
4a	euch	sei#	sei	#lig	su#	ist	#rü#	hat	#für	#tus
4b-	und	#ne	auf	ist,	#chet	er#	#ber	das	sei	ver#
=	=	=	=	=	=	=	=	=	=	=
2a	sin#	Feind’	e#	wer	Je#	#stan#	freu	Le#	Dank	#söhnt
4f	#get,	ge#	#wig	zu	#sus,	#den,	sich	#ben	und	uns
4e	Hal#	#fan#	Lob,	Je#	hier	wie	al#	wie#	Lob	mit
4f	#le#	#gen	Preis	#sus	ist	er	#les,	#der#	al#	un#
4g	#lu#	er	und	ge#	er	ge#	was	#ge#	#le#	#ser'm
=	=	=	=	=	=	=	=	=	=	=
2.f	#ja!	führt.	Dank;	#hört.	nicht.	#sagt."	lebt.	#bracht."	#zeit.	Gott.
=:|	=	=	=	=	=	=	=	=	=	=
4cc	.	Lasst	.	Lasst	.	Lasst	.	Lasst	.	Lasst
4cc	.	uns	.	uns	.	uns	.	uns	.	uns
4cc	.	lob#	.	lob#	.	lob#	.	lob#	.	lob#
=	=	=	=	=	=	=	=	=	=	=
4cc	.	#sin#	.	#sin#	.	#sin#	.	#sin#	.	#sin#
4g	.	#gen	.	#gen	.	#gen	.	#gen	.	#gen
4a	.	vor	.	vor	.	vor	.	vor	.	vor
4b-	.	un#	.	un#	.	un#	.	un#	.	un#
4b-	.	#se#	.	#se#	.	#se#	.	#se#	.	#se#
4b-	.	#rem	.	#rem	.	#rem	.	#rem	.	#rem
=	=	=	=	=	=	=	=	=	=	=
2.a	.	Gott,	.	Gott,	.	Gott,	.	Gott,	.	Gott,
4cc	.	der	.	der	.	der	.	der	.	der
4cc	.	uns	.	uns	.	uns	.	uns	.	uns
4cc	.	er#	.	er#	.	er#	.	er#	.	er#
=	=	=	=	=	=	=	=	=	=	=
4cc	.	#löst	.	#löst	.	#löst	.	#löst	.	#löst
4g	.	hat	.	hat	.	hat	.	hat	.	hat
4a	.	vom	.	vom	.	vom	.	vom	.	vom
4b-	.	e#	.	e#	.	e#	.	e#	.	e#
4b-	.	#wi#	.	#wi#	.	#wi#	.	#wi#	.	#wi#
4b-	.	#gen	.	#gen	.	#gen	.	#gen	.	#gen
=	=	=	=	=	=	=	=	=	=	=
2.a	.	Tod.	.	Tod.	.	Tod.	.	Tod.	.	Tod.
4c	.	Sünd’	.	Sünd’	.	Sünd’	.	Sünd’	.	Sünd’
4c	.	ist	.	ist	.	ist	.	ist	.	ist
4c	.	ver#	.	ver#	.	ver#	.	ver#	.	ver#
=	=	=	=	=	=	=	=	=	=	=
2f	.	#ge#	.	#ge#	.	#ge#	.	#ge#	.	#ge#
4f	.	#ben,	.	#ben,	.	#ben,	.	#ben,	.	#ben,
4a	.	Hal#	.	Hal#	.	Hal#	.	Hal#	.	Hal#
4g	.	#le#	.	#le#	.	#le#	.	#le#	.	#le#
4g	.	#lu#	.	#lu#	.	#lu#	.	#lu#	.	#lu#
=	=	=	=	=	=	=	=	=	=	=
2.f	.	#ja!	.	#ja!	.	#ja!	.	#ja!	.	#ja!
4g	.	Je#	.	Je#	.	Je#	.	Je#	.	Je#
4a	.	#sus	.	#sus	.	#sus	.	#sus	.	#sus
4b-	.	bringt	.	bringt	.	bringt	.	bringt	.	bringt
=	=	=	=	=	=	=	=	=	=	=
2a	.	Le#	.	Le#	.	Le#	.	Le#	.	Le#
4f	.	#ben,	.	#ben,	.	#ben,	.	#ben,	.	#ben,
4e	.	Hal#	.	Hal#	.	Hal#	.	Hal#	.	Hal#
4f	.	#le#	.	#le#	.	#le#	.	#le#	.	#le#
4g	.	#lu#	.	#lu#	.	#lu#	.	#lu#	.	#lu#
=	=	=	=	=	=	=	=	=	=	=
2.f	.	#ja!	.	#ja!	.	#ja!	.	#ja!	.	#ja!
==	==	==	==	==	==	==	==	==	==	==
*-	*-	*-	*-	*-	*-	*-	*-	*-	*-	*-
